X:71
T:Iâ€™ve Lost My Love And I Care Not. JBi.70
M:C|
L:1/8
Q:1/2=80
S:James Biggins MS, Leeds, 1779.
R:.Reel
O:England
A:Yorkshire
N:Mr Biggins seems to have got a bit fed up with key signatures around
N:here.This ones a bit odd anyway, whatever you put it in..CGPâ€¦
Z:vmp.Nick Barber & Chris Partington..
K:A
â€œ_Key? 5 flats in ms,see noteâ€\
B|Bcce dBGB|cAAa g2e2|Bcce dBGB|cAAa g2â€³^crâ€e||!
â€œ^crâ€a|gece dBGa|geca g2e2|gece|dBGe|cAca g2â€³^crâ€e|]

